X: 16
T: No_115_"How_Tiny_You_Are".krn
N: Derived from No_115_"How_Tiny_You_Are".krn
%%abc-version 2.0
%%abcx-abcm2ps-target-version 5.9.1 (29 Sep 2008)
%%abc-creator hum2abc beta
%%abcx-conversion-date 2019/03/15 08:36:13
%%humdrum-veritas 640415814
%%humdrum-veritas-data 3259565949
%%linebreak <none>
%%barnumbers 0
L: 1/8
M: 3/4
K: G clef=bass
[K:clef=bass][M:3/4]DE/E/ D3/D/ B,/A,/G,/G,// z// ||  
[M:2/4]A,2D3/E/ | 
D3/B,/ (3:2:4B,A,G,/ z/ | 
B,2A,3/D/ | 
B,3/B,/ (3:2:4B,A,G,/ z/ | 
B,2A,B,/A,/ | 
(3G,E,D, D, z | 
E,2(3A,A,F, | 
G,E, D, z | 
E,2G,3/E,/ | 
D,3/D,/D,2 | 
D,4 |]  



